lib/preview/nrk-logo-preview-nrk-p3-urort-with-bg.svg

<svg width="115" height="24" viewBox="0 0 115 24" fill="none" xmlns="http://www.w3.org/2000/svg">
<rect width="115" height="24" fill="#FFE100"/>
<path d="M76.907 13.2539C76.9142 13.7581 76.8546 14.261 76.7296 14.7494C76.6298 15.1465 76.4422 15.5161 76.1804 15.8309C75.918 16.1279 75.5833 16.352 75.2087 16.4815C74.7436 16.6382 74.2547 16.7126 73.764 16.7011C73.1922 16.7141 72.6235 16.6136 72.0908 16.4054C71.6227 16.213 71.2391 15.8593 71.0093 15.4084C70.7349 14.8137 70.6074 14.1617 70.6376 13.5074V6.005H68.8633V13.7958C68.8442 14.4967 68.9739 15.1936 69.2438 15.8407C69.4741 16.3744 69.8342 16.8421 70.2914 17.201C70.7516 17.5522 71.2773 17.8078 71.8376 17.953C72.4441 18.1132 73.0691 18.1926 73.6964 18.1893C74.6387 18.2261 75.5749 18.0225 76.4169 17.5978C77.1049 17.2261 77.6579 16.6465 77.9969 15.9418C78.356 15.1581 78.5322 14.3029 78.512 13.4409V6.00585H76.9067L76.907 13.2539Z" fill="black"/>
<path d="M84.5618 9.32545C84.2456 9.40997 83.9438 9.54095 83.6662 9.71411C83.3778 9.89394 83.1113 10.1066 82.872 10.3478C82.832 10.3875 82.7931 10.4323 82.7537 10.4739V9.21533L81.0301 9.4688V18.0023H82.7537V11.6185C82.8817 11.5289 83.0143 11.4459 83.1508 11.3698C83.3199 11.2769 83.4949 11.195 83.6746 11.1248C83.849 11.0572 84.0265 10.9981 84.2069 10.9474C84.3924 10.8958 84.5817 10.859 84.773 10.8375C84.9778 10.8151 85.1841 10.8094 85.3898 10.8206L85.5925 9.23252C85.2462 9.20748 84.8981 9.23886 84.5618 9.32545Z" fill="black"/>
<path d="M94.4133 8.99566L93.467 9.99433C93.3426 9.90166 93.2128 9.81646 93.0783 9.73917C92.372 9.36312 91.5801 9.17689 90.7802 9.19872C89.9759 9.18045 89.1808 9.37258 88.4736 9.75607C87.8209 10.1215 87.287 10.667 86.9359 11.3276C86.5543 12.0687 86.3654 12.894 86.3867 13.7274C86.3651 14.555 86.5449 15.3754 86.9106 16.1181C87.0075 16.3021 87.1189 16.478 87.2437 16.6442L86.3022 17.6477L87.0796 18.3571L87.9808 17.3832C88.1107 17.4803 88.2469 17.5687 88.3886 17.6477C89.0783 18.0097 89.8489 18.1899 90.6276 18.1713C91.4371 18.1883 92.2374 17.9962 92.951 17.6136C93.618 17.2452 94.166 16.6943 94.531 16.0255C94.9287 15.2772 95.1266 14.439 95.1055 13.5919C95.125 12.7851 94.942 11.9863 94.5732 11.2684C94.473 11.0845 94.3583 10.9089 94.2302 10.7432L95.2069 9.70538L94.4133 8.99566ZM88.5159 11.9193C88.7054 11.4961 89.0212 11.142 89.4199 10.9054C89.8406 10.672 90.3161 10.5553 90.7971 10.5675C91.1796 10.5587 91.5596 10.6307 91.9124 10.7787C92.1024 10.8641 92.2777 10.9789 92.432 11.1189L88.5007 15.3648C88.2816 14.812 88.1775 14.2203 88.1948 13.626C88.1748 13.0404 88.2844 12.4576 88.5159 11.9193ZM92.9769 15.4C92.7837 15.8369 92.4626 16.2051 92.056 16.4561C91.6483 16.6922 91.1837 16.8121 90.7126 16.8028C90.2456 16.8137 89.7853 16.6905 89.3861 16.4479C89.2737 16.3756 89.1685 16.2925 89.0721 16.1998L93.0054 11.9531C93.064 12.0877 93.1137 12.226 93.1544 12.3671C93.2657 12.7772 93.3197 13.2008 93.3149 13.6257C93.335 14.2352 93.2195 14.8416 92.9769 15.4011V15.4Z" fill="black"/>
<path d="M100.8 9.32545C100.484 9.41003 100.183 9.54101 99.9048 9.71411C99.6165 9.89401 99.35 10.1066 99.1106 10.3478C99.0706 10.3875 99.0318 10.4323 98.9923 10.4739V9.21533L97.2687 9.4688V18.0023H98.9923V11.6185C99.1204 11.5289 99.2529 11.4459 99.3894 11.3698C99.5585 11.2769 99.7335 11.195 99.9133 11.1248C100.088 11.0572 100.265 10.9981 100.446 10.9474C100.631 10.8958 100.82 10.8591 101.012 10.8375C101.216 10.8151 101.423 10.8094 101.628 10.8206L101.831 9.23252C101.485 9.20749 101.137 9.23888 100.8 9.32545Z" fill="black"/>
<path d="M108.134 16.5916C108.055 16.6082 107.968 16.6254 107.872 16.642L107.585 16.6927C107.493 16.7091 107.4 16.7204 107.306 16.7265C107.216 16.7324 107.131 16.7349 107.053 16.7349C106.794 16.7422 106.537 16.6901 106.301 16.5828C106.098 16.4868 105.93 16.3304 105.819 16.135C105.701 15.9147 105.642 15.6671 105.65 15.4172V10.7361H108.033L108.219 9.38431H105.65V6.71416L103.927 7.32248V9.38431H102.625L102.44 10.7361H103.927V15.7717C103.919 16.1076 103.97 16.4422 104.079 16.7603C104.166 17.0119 104.301 17.2443 104.476 17.4446C104.637 17.6232 104.832 17.7669 105.051 17.8671C105.274 17.9697 105.509 18.0435 105.752 18.0868C105.991 18.1309 106.234 18.1536 106.478 18.1544C106.658 18.1544 106.836 18.1487 107.011 18.1377C107.186 18.1268 107.346 18.1096 107.492 18.0868C107.639 18.0639 107.776 18.0386 107.906 18.011C108.036 17.9834 108.145 17.9575 108.236 17.9347L108.337 16.5324C108.271 16.5575 108.203 16.5773 108.134 16.5916Z" fill="black"/>
<path d="M52.3374 6.00488H48.6362C48.6362 6.00488 50.7394 9.45744 50.7631 9.5009C50.8424 9.60074 50.8866 9.72385 50.8891 9.85131C50.8916 9.97876 50.8522 10.1035 50.7769 10.2064L48.6362 13.7154H52.338C52.338 13.7154 54.1231 10.7964 54.3672 10.3912C54.483 10.236 54.5447 10.047 54.543 9.85337C54.5412 9.65971 54.476 9.47196 54.3573 9.31888C54.094 8.87049 54.0935 8.87078 52.3374 6.00488Z" fill="black"/>
<path d="M48.158 6.00492H44.8615V17.9982H48.158V6.00492Z" fill="black"/>
<path d="M63.9308 7.99177C63.8064 7.77956 62.7047 6.00488 62.7047 6.00488H54.782L56.5127 8.90774H60.6856L58.9643 11.7296L60.8832 14.9536L59.0312 17.9973H62.4135C62.9573 17.1078 63.7703 15.7319 63.9401 15.45C64.0566 15.2942 64.1187 15.1044 64.117 14.9099C64.1152 14.7154 64.0496 14.5268 63.9302 14.3731C63.7609 14.0842 62.8551 12.6476 62.3139 11.7632C62.3139 11.7632 63.7703 9.34993 63.9401 9.06802C64.0566 8.91233 64.1187 8.72274 64.117 8.52833C64.1153 8.33392 64.0499 8.14543 63.9308 7.99177Z" fill="black"/>
<path d="M56.3101 12.1193C55.7886 12.971 54.9166 14.3983 54.7532 14.6765C54.6382 14.8245 54.575 15.0062 54.5733 15.1936C54.5716 15.381 54.6314 15.5637 54.7436 15.7138C54.9073 15.9853 55.786 17.4239 56.3101 18.2817C56.8338 17.4247 57.7128 15.9861 57.8762 15.7138C57.9884 15.5637 58.0482 15.381 58.0465 15.1936C58.0449 15.0062 57.9818 14.8246 57.8669 14.6765C57.7035 14.3983 56.8313 12.971 56.3101 12.1193Z" fill="black"/>
<path d="M6.00427 18V6.00109H9.94146V18H6.00427ZM15.2981 7.91078L17.5623 18H13.2534L10.5498 6.00109H12.9664C13.5206 5.9939 14.0583 6.18925 14.4788 6.55039C14.8999 6.89638 15.1892 7.3767 15.2981 7.91078ZM18.1538 18V6.00109H22.091V18H18.1538ZM25.0647 10.5641C24.6405 10.5682 24.223 10.4572 23.8568 10.243C23.4955 10.0341 23.1954 9.73396 22.9865 9.3726C22.7721 9.00633 22.661 8.58876 22.6652 8.16432C22.6604 7.74246 22.7715 7.32738 22.9865 6.96443C23.1976 6.60699 23.4974 6.31009 23.8568 6.10252C24.2231 5.8885 24.6405 5.77751 25.0647 5.78138C25.4865 5.77684 25.9014 5.88793 26.2645 6.10252C26.6203 6.31191 26.9169 6.60856 27.1263 6.96443C27.3411 7.32748 27.4522 7.74249 27.4476 8.16432C27.4515 8.58873 27.3405 9.00623 27.1263 9.3726C26.9191 9.73238 26.6222 10.0323 26.2645 10.243C25.9014 10.458 25.4862 10.5691 25.0642 10.5641H25.0647ZM28.0559 18V6.00109H31.9934V18H28.0559ZM36.978 12.5582C36.9891 12.5699 37.0735 12.7079 37.2314 12.9723C37.3893 13.2367 37.5949 13.5747 37.8482 13.9863C38.1017 14.3977 38.3692 14.8343 38.6506 15.296C38.932 15.7577 39.1969 16.1944 39.4451 16.6058C39.6924 17.0172 39.974 17.4819 40.29 18H35.9641C35.6936 17.5606 35.4484 17.1635 35.2287 16.8086C35.0091 16.4537 34.7756 16.0706 34.5281 15.6594C34.2801 15.2485 34.0349 14.8485 33.7925 14.4595C33.5501 14.0704 33.3418 13.7296 33.1675 13.4371C32.9925 13.1443 32.8713 12.9471 32.8039 12.8455C32.6368 12.5934 32.5379 12.3023 32.517 12.0005C32.5337 11.7109 32.6269 11.431 32.787 11.1891C32.8546 11.0764 32.9786 10.8764 33.1588 10.5891C33.339 10.3018 33.5503 9.96105 33.7925 9.56672C34.0347 9.17239 34.2799 8.7696 34.5281 8.35837C34.7763 7.94715 35.0098 7.56124 35.2287 7.20071C35.4488 6.84055 35.6939 6.44059 35.9641 6.00081H40.29L36.9439 11.4595C36.8404 11.6216 36.782 11.8083 36.7749 12.0005C36.786 12.2023 36.8565 12.3963 36.9774 12.5582H36.978Z" fill="black"/>
</svg>

<svg xmlns="http://www.w3.org/2000/svg" viewBox="0 0 115 24"><path fill="#FFE100" d="M0 0h115v24H0z"/><path fill="#000" d="M76.907 13.254a5.703 5.703 0 0 1-.177 1.495c-.1.397-.288.767-.55 1.082a2.299 2.299 0 0 1-.971.65 4.216 4.216 0 0 1-1.445.22 4.326 4.326 0 0 1-1.673-.296 2.117 2.117 0 0 1-1.082-.997 4.088 4.088 0 0 1-.371-1.9V6.004h-1.775v7.79c-.019.702.11 1.399.38 2.046.231.533.591 1.001 1.048 1.36.46.351.986.607 1.547.752.606.16 1.231.24 1.858.236a5.56 5.56 0 0 0 2.72-.591 3.71 3.71 0 0 0 1.58-1.656c.36-.784.536-1.64.516-2.501V6.006h-1.605v7.248ZM84.562 9.325a3.304 3.304 0 0 0-.896.39c-.288.179-.555.392-.794.633-.04.04-.079.084-.118.126V9.215l-1.724.254v8.533h1.724V11.62c.128-.09.26-.173.397-.25.169-.092.344-.174.524-.244.174-.068.352-.127.532-.178a3.622 3.622 0 0 1 1.183-.126l.203-1.588a3.206 3.206 0 0 0-1.031.092ZM94.413 8.996l-.946.998a3.92 3.92 0 0 0-.389-.255 4.622 4.622 0 0 0-2.298-.54 4.619 4.619 0 0 0-2.306.557 3.898 3.898 0 0 0-1.538 1.572 4.965 4.965 0 0 0-.55 2.4 5.11 5.11 0 0 0 .525 2.39c.096.184.208.36.333.526l-.942 1.004.778.71.9-.975c.13.097.267.186.409.265.69.362 1.46.542 2.239.523.81.017 1.61-.175 2.323-.557a4.007 4.007 0 0 0 1.58-1.588 4.924 4.924 0 0 0 .575-2.434 4.83 4.83 0 0 0-.533-2.324c-.1-.184-.215-.36-.343-.525l.977-1.038-.794-.71Zm-5.897 2.923c.19-.423.505-.777.904-1.014.42-.233.896-.35 1.377-.337.383-.01.763.063 1.115.21.19.086.366.2.52.34l-3.931 4.247a4.374 4.374 0 0 1-.306-1.739c-.02-.586.09-1.168.32-1.707Zm4.46 3.481a2.366 2.366 0 0 1-.92 1.056 2.58 2.58 0 0 1-1.343.347 2.444 2.444 0 0 1-1.327-.355 2.064 2.064 0 0 1-.314-.248l3.933-4.247c.059.135.109.273.15.414.11.41.165.834.16 1.259.02.61-.096 1.216-.338 1.775V15.4ZM100.8 9.325a3.316 3.316 0 0 0-.895.39c-.288.179-.555.392-.794.633-.04.04-.08.084-.119.126V9.215l-1.723.254v8.533h1.723V11.62c.128-.09.26-.173.397-.25.17-.092.345-.174.524-.244.175-.068.352-.127.533-.178a3.605 3.605 0 0 1 1.182-.126l.203-1.588a3.211 3.211 0 0 0-1.031.092ZM108.134 16.592a7.373 7.373 0 0 1-.262.05l-.287.05a2.518 2.518 0 0 1-.279.035 3.88 3.88 0 0 1-.253.008 1.7 1.7 0 0 1-.752-.152 1.09 1.09 0 0 1-.482-.448 1.425 1.425 0 0 1-.169-.718v-4.68h2.383l.186-1.353h-2.569v-2.67l-1.723.608v2.062h-1.302l-.185 1.352h1.487v5.036c-.008.336.043.67.152.988.087.252.222.484.397.685.161.178.356.322.575.422.223.103.458.177.701.22.239.044.482.067.726.067.18 0 .358-.005.533-.016.175-.011.335-.028.481-.051a7.679 7.679 0 0 0 .744-.152l.101-1.403a1.332 1.332 0 0 1-.203.06ZM52.337 6.005h-3.7s2.102 3.452 2.126 3.496a.582.582 0 0 1 .014.705l-2.14 3.51h3.701s1.785-2.92 2.03-3.325a.886.886 0 0 0-.01-1.072c-.264-.449-.264-.448-2.02-3.314ZM48.158 6.005h-3.297v11.993h3.297V6.005ZM63.93 7.992c-.124-.212-1.225-1.987-1.225-1.987h-7.923l1.73 2.903h4.174l-1.722 2.822 1.92 3.224-1.853 3.043h3.383c.543-.89 1.356-2.265 1.526-2.547a.889.889 0 0 0-.01-1.077c-.17-.289-1.075-1.725-1.616-2.61l1.626-2.695a.888.888 0 0 0-.01-1.076Z"/><path fill="#000" d="M56.31 12.12c-.521.851-1.393 2.278-1.557 2.557a.855.855 0 0 0-.01 1.037c.164.271 1.043 1.71 1.567 2.568.524-.857 1.403-2.296 1.566-2.568a.856.856 0 0 0-.01-1.037 392.387 392.387 0 0 0-1.556-2.558ZM6.004 18V6.001h3.937V18H6.004Zm9.294-10.09L17.562 18h-4.309L10.55 6.001h2.416a2.276 2.276 0 0 1 1.513.55c.42.345.71.826.82 1.36ZM18.154 18V6.001h3.937V18h-3.937Zm6.91-7.436a2.383 2.383 0 0 1-2.4-2.4 2.303 2.303 0 0 1 .323-1.2 2.411 2.411 0 0 1 3.278-.861c.355.209.652.506.861.861.215.363.326.778.322 1.2a2.4 2.4 0 0 1-1.183 2.079 2.302 2.302 0 0 1-1.2.321ZM28.057 18V6.001h3.937V18h-3.937Zm8.922-5.442c.011.012.096.15.253.414.158.265.364.603.617 1.014a315.936 315.936 0 0 1 1.597 2.62c.247.411.529.876.845 1.394h-4.326c-.27-.44-.516-.837-.735-1.191-.22-.355-.453-.738-.7-1.15-.249-.41-.494-.81-.737-1.2-.242-.389-.45-.73-.625-1.022-.175-.293-.296-.49-.363-.591a1.748 1.748 0 0 1-.287-.845c.017-.29.11-.57.27-.812.068-.113.192-.313.372-.6s.391-.628.633-1.022c.243-.395.488-.797.736-1.209l.7-1.157.736-1.2h4.326l-3.346 5.458a1.08 1.08 0 0 0-.17.542c.012.201.082.395.203.557h.001Z"/></svg>
